exports/number-affected-by-natural-disasters_v1_850x600.svg

<svg xmlns="http://www.w3.org/2000/svg" version="1.1" style="background-color:#fff;-webkit-font-smoothing:antialiased" width="850" height="600" font-family="'Helvetica Neue',Helvetica,Arial,sans-serif" font-size="18" text-rendering="optimizeLegibility"><g class="ChartTab"><g class="HeaderView"><g opacity=".8" transform="matrix(.31 0 0 .31 770 15)"><a xmlns:xlink="http://www.w3.org/1999/xlink" xlink:href="https://ourworldindata.org" target="_blank"><g><path fill="#1B2543" d="M0 0h211.2v130.1H0z"/><path fill="#E63912" d="M0 112.2h211.2v17.9H0z"/><g><path fill="none" d="M1.2 12.3h210.2v99.2H1.2z"/><path fill="#FFF" d="M37.8 32.2c0 12.7-7.7 19.4-17.1 19.4-9.7 0-16.6-7.5-16.6-18.7 0-11.7 7.3-19.3 17.1-19.3 10.1.1 16.6 7.7 16.6 18.6zm-28.6.6c0 7.9 4.3 14.9 11.8 14.9 7.5 0 11.8-6.9 11.8-15.3 0-7.3-3.8-14.9-11.8-14.9-7.9 0-11.8 7.3-11.8 15.3zM62.7 43.8c0 2.7.1 5.1.2 7.2h-4.3l-.3-4.3h-.1c-1.3 2.1-4 4.9-8.8 4.9-4.2 0-9.1-2.3-9.1-11.6V24.6h4.8v14.6c0 5 1.5 8.4 5.9 8.4 3.2 0 5.5-2.2 6.3-4.4.3-.7.4-1.6.4-2.5V24.6h4.8v19.2zM67.3 32.8c0-3.1-.1-5.8-.2-8.2h4.2l.2 5.2h.2c1.2-3.5 4.1-5.8 7.3-5.8.5 0 .9.1 1.4.2v4.5c-.5-.1-1-.2-1.6-.2-3.4 0-5.8 2.6-6.5 6.2-.1.7-.2 1.4-.2 2.2V51h-4.8V32.8zM95.4 51L86 14.2h5l4.4 18.6c1.1 4.6 2.1 9.2 2.7 12.7h.1c.6-3.7 1.8-8 3-12.8l4.9-18.5h5l4.5 18.7c1 4.4 2 8.7 2.6 12.6h.1c.8-4 1.8-8.1 3-12.7l4.9-18.5h4.9L120.6 51h-5L111 31.9c-1.1-4.7-1.9-8.3-2.4-12h-.1c-.7 3.7-1.5 7.3-2.8 12L100.4 51h-5zM154.9 37.6c0 9.8-6.8 14-13.2 14-7.2 0-12.7-5.2-12.7-13.6 0-8.8 5.8-14 13.1-14 7.7 0 12.8 5.5 12.8 13.6zm-21 .3c0 5.8 3.3 10.1 8 10.1 4.6 0 8-4.3 8-10.3 0-4.5-2.2-10.1-7.9-10.1s-8.1 5.2-8.1 10.3zM158.2 32.8c0-3.1-.1-5.8-.2-8.2h4.2l.2 5.2h.2c1.2-3.5 4.1-5.8 7.3-5.8.5 0 .9.1 1.4.2v4.5c-.5-.1-1-.2-1.6-.2-3.4 0-5.8 2.6-6.5 6.2-.1.7-.2 1.4-.2 2.2V51h-4.8V32.8zM173.5 12.3h4.8V51h-4.8V12.3zM206.5 12.3v31.9c0 2.3.1 5 .2 6.8h-4.3l-.2-4.6h-.2c-1.5 2.9-4.7 5.2-9 5.2-6.4 0-11.3-5.4-11.3-13.4-.1-8.8 5.4-14.2 11.9-14.2 4 0 6.8 1.9 8 4h.1V12.3h4.8zm-4.8 23.1c0-.6-.1-1.4-.2-2a7 7 0 00-6.9-5.6c-5 0-7.9 4.4-7.9 10.2 0 5.3 2.6 9.8 7.8 9.8 3.2 0 6.2-2.1 7.1-5.7.2-.7.2-1.3.2-2.1v-4.6zM42.8 64c.1 1.6-1.1 2.9-3.1 2.9-1.7 0-2.9-1.3-2.9-2.9 0-1.7 1.3-3 3-3 1.9 0 3 1.3 3 3zm-5.4 33.8V71.4h4.8v26.4h-4.8zM47.5 78.6c0-2.7-.1-5-.2-7.1h4.3l.3 4.4h.1c1.3-2.5 4.4-5 8.8-5 3.7 0 9.4 2.2 9.4 11.2v15.8h-4.8V82.6c0-4.3-1.6-7.8-6.1-7.8-3.2 0-5.6 2.2-6.5 4.9-.2.6-.3 1.4-.3 2.2v15.9h-4.8V78.6zM84 61.6c2.9-.4 6.3-.8 10.1-.8 6.8 0 11.7 1.6 14.9 4.6 3.3 3 5.2 7.3 5.2 13.2 0 6-1.9 10.9-5.3 14.3-3.4 3.4-9.1 5.3-16.3 5.3-3.4 0-6.2-.2-8.6-.4V61.6zm4.8 32.5c1.2.2 3 .3 4.8.3 10.2 0 15.7-5.7 15.7-15.6.1-8.7-4.9-14.2-14.9-14.2-2.5 0-4.3.2-5.6.5v29zM132.1 97.8l-.4-3.3h-.2a9.79 9.79 0 01-8.1 3.9c-5.4 0-8.1-3.8-8.1-7.6 0-6.4 5.7-9.9 15.9-9.8v-.5c0-2.2-.6-6.1-6-6.1-2.5 0-5 .8-6.9 2l-1.1-3.2c2.2-1.4 5.4-2.3 8.7-2.3 8.1 0 10.1 5.5 10.1 10.8v9.9c0 2.3.1 4.5.4 6.3h-4.3zm-.7-13.4c-5.3-.1-11.2.8-11.2 5.9 0 3.1 2.1 4.6 4.5 4.6 3.4 0 5.6-2.2 6.4-4.4.2-.5.3-1 .3-1.5v-4.6zM146.6 63.9v7.6h6.9v3.7h-6.9v14.2c0 3.3.9 5.1 3.6 5.1 1.3 0 2.2-.2 2.8-.3l.2 3.6c-.9.4-2.4.7-4.3.7-2.2 0-4-.7-5.2-2-1.4-1.4-1.9-3.8-1.9-6.9V75.1h-4.1v-3.7h4.1v-6.3l4.8-1.2zM171.4 97.8l-.4-3.3h-.2a9.79 9.79 0 01-8.1 3.9c-5.4 0-8.1-3.8-8.1-7.6 0-6.4 5.7-9.9 15.9-9.8v-.5c0-2.2-.6-6.1-6-6.1-2.5 0-5 .8-6.9 2l-1.1-3.2c2.2-1.4 5.4-2.3 8.7-2.3 8.1 0 10.1 5.5 10.1 10.8v9.9c0 2.3.1 4.5.4 6.3h-4.3zm-.7-13.4c-5.3-.1-11.2.8-11.2 5.9 0 3.1 2.1 4.6 4.5 4.6 3.4 0 5.6-2.2 6.4-4.4.2-.5.3-1 .3-1.5v-4.6z"/></g></g></a></g><a href="https://ourworldindata.org/grapher/number-affected-by-natural-disasters" target="_blank"><text font-size="24.3" x="15" y="34.4" fill="#555"><tspan x="15" y="34.44">Number of people affected by natural disasters, All natural disasters</tspan></text></a><text font-size="14.4" x="15" y="52.8" fill="#666"><tspan x="15" y="52.82">Global number of people affected by natural disasters. This is defined as &quot;people requiring immediate assistance</tspan><tspan x="15" y="68.66">during a period of emergency, i.e. requiring basic survival needs such as food, water, shelter, sanitation and</tspan><tspan x="15" y="84.5">immediate medical assistance.&quot;</tspan></text></g><g class="LineChart"><defs><clipPath id="a"><path d="M87.6 0h830v870.4h-830z"/></clipPath></defs><g class="AxisBoxView"><g class="HorizontalAxis" fill="#666" text-anchor="middle" font-size="16.2"><text x="97.6" y="541.9">1907</text><text x="166.9" y="541.9">1920</text><text x="273.5" y="541.9">1940</text><text x="380.1" y="541.9">1960</text><text x="486.8" y="541.9">1980</text><text x="593.4" y="541.9">2000</text><text x="684" y="541.9">2017</text></g><g class="VerticalAxis" fill="#666" dominant-baseline="middle" text-anchor="end" font-size="16.2"><text x="92.6" y="457.9">100 million</text><text x="92.6" y="395">200 million</text><text x="92.6" y="332.2">300 million</text><text x="92.6" y="269.4">400 million</text><text x="92.6" y="206.5">500 million</text><text x="92.6" y="143.7">600 million</text></g><g class="AxisGridLines" stroke="#ddd" stroke-dasharray="3,2"><path d="M97.6 457.9H684M97.6 395H684M97.6 332.2H684M97.6 269.4H684M97.6 206.5H684M97.6 143.7H684"/></g><g class="AxisGridLines" stroke="#ddd" stroke-dasharray="3,2"><path d="M166.9 520.7v-414M273.5 520.7v-414M380.1 520.7v-414M486.8 520.7v-414M593.4 520.7v-414"/></g></g><g clip-path="url(#a)"><g class="HeightedLegend clickable"><g class="legendMark"><path fill="#3360a9" d="M694 461.45h10v2.5h-10z"/><text font-size="14.4" x="709" y="467" fill="#333"><tspan x="709" y="467.02">All natural disasters</tspan></text></g></g><g class="Lines"><g class="key-All-natural-disasters_0"><path stroke="#3360a9" stroke-linecap="round" d="M98 521h16l26-2 11 1 5-1 11-11 5 10 11-9 5 11 16 1h22l21-7 11 7h37l5-1 6 1 10-1 6 1 5-7 5 7 6-1 5-1 5 2 11-1h5l6 1 5-1 5-1 6 1 5 1 5-4 6-1 5-69 5 67 6 3 5-12 5 8 5-21 6 23 5-131 5 129 6-19 5 6 5 7h6l5-21 5-3 6-8 5 26 5-74 6 28 5 27 5 22 6-1 5-216 5 107 6 20 5 55 5-123 6 135 5-67 5-59 6 30 5 2 5 92 6-156 5 25 5 64 6 42 5-347 5 255 6 60 5 2 5 21 6-57 5-4 5 10 6-35 5 29 5 63 6 9 5-27 5-184 6 146 5 68" fill="none" stroke-width="1.5"/><g fill="#3360a9"><circle cx="98" cy="521" r="2"/><circle cx="103" cy="521" r="2"/><circle cx="114" cy="521" r="2"/><circle cx="140" cy="519" r="2"/><circle cx="151" cy="520" r="2"/><circle cx="156" cy="519" r="2"/><circle cx="167" cy="508" r="2"/><circle cx="172" cy="518" r="2"/><circle cx="183" cy="509" r="2"/><circle cx="188" cy="520" r="2"/><circle cx="204" cy="521" r="2"/><circle cx="210" cy="521" r="2"/><circle cx="220" cy="521" r="2"/><circle cx="226" cy="521" r="2"/><circle cx="247" cy="514" r="2"/><circle cx="258" cy="521" r="2"/><circle cx="274" cy="521" r="2"/><circle cx="290" cy="521" r="2"/><circle cx="295" cy="521" r="2"/><circle cx="300" cy="520" r="2"/><circle cx="306" cy="521" r="2"/><circle cx="316" cy="520" r="2"/><circle cx="322" cy="521" r="2"/><circle cx="327" cy="514" r="2"/><circle cx="332" cy="521" r="2"/><circle cx="338" cy="520" r="2"/><circle cx="343" cy="519" r="2"/><circle cx="348" cy="521" r="2"/><circle cx="359" cy="520" r="2"/><circle cx="364" cy="520" r="2"/><circle cx="370" cy="521" r="2"/><circle cx="375" cy="520" r="2"/><circle cx="380" cy="519" r="2"/><circle cx="386" cy="520" r="2"/><circle cx="391" cy="521" r="2"/><circle cx="396" cy="517" r="2"/><circle cx="402" cy="516" r="2"/><circle cx="407" cy="447" r="2"/><circle cx="412" cy="514" r="2"/><circle cx="418" cy="517" r="2"/><circle cx="423" cy="505" r="2"/><circle cx="428" cy="513" r="2"/><circle cx="433" cy="492" r="2"/><circle cx="439" cy="515" r="2"/><circle cx="444" cy="384" r="2"/><circle cx="449" cy="513" r="2"/><circle cx="455" cy="494" r="2"/><circle cx="460" cy="500" r="2"/><circle cx="465" cy="507" r="2"/><circle cx="471" cy="507" r="2"/><circle cx="476" cy="486" r="2"/><circle cx="481" cy="483" r="2"/><circle cx="487" cy="475" r="2"/><circle cx="492" cy="501" r="2"/><circle cx="497" cy="427" r="2"/><circle cx="503" cy="455" r="2"/><circle cx="508" cy="482" r="2"/><circle cx="513" cy="504" r="2"/><circle cx="519" cy="503" r="2"/><circle cx="524" cy="287" r="2"/><circle cx="529" cy="394" r="2"/><circle cx="535" cy="414" r="2"/><circle cx="540" cy="469" r="2"/><circle cx="545" cy="346" r="2"/><circle cx="551" cy="481" r="2"/><circle cx="556" cy="414" r="2"/><circle cx="561" cy="355" r="2"/><circle cx="567" cy="385" r="2"/><circle cx="572" cy="387" r="2"/><circle cx="577" cy="479" r="2"/><circle cx="583" cy="323" r="2"/><circle cx="588" cy="348" r="2"/><circle cx="593" cy="412" r="2"/><circle cx="599" cy="454" r="2"/><circle cx="604" cy="107" r="2"/><circle cx="609" cy="362" r="2"/><circle cx="615" cy="422" r="2"/><circle cx="620" cy="424" r="2"/><circle cx="625" cy="445" r="2"/><circle cx="631" cy="388" r="2"/><circle cx="636" cy="384" r="2"/><circle cx="641" cy="394" r="2"/><circle cx="647" cy="359" r="2"/><circle cx="652" cy="388" r="2"/><circle cx="657" cy="451" r="2"/><circle cx="663" cy="460" r="2"/><circle cx="668" cy="433" r="2"/><circle cx="673" cy="249" r="2"/><circle cx="679" cy="395" r="2"/><circle cx="684" cy="463" r="2"/></g></g></g></g></g><g class="SourcesFooter" fill="#777"><g class="clickable" fill="#777"><text font-size="12.6" x="15" y="567"><tspan x="15" y="566.98">Source: EMDAT (2017): OFDA/CRED International Disaster Database, Université catholique de Louvain – Brussels – Belgium</tspan></text></g><text font-size="12.6" x="15" y="582.5"><tspan x="15" y="582.48"><a target="_blank" href="https://ourworldindata.org/natural-catastrophes/" fill="#777">OurWorldInData.org/natural-catastrophes/</a> • <a href="http://creativecommons.org/licenses/by-sa/4.0/deed.en_US" target="_blank" fill="#777">CC BY-SA</a></tspan></text></g></g></svg>

<svg xmlns="http://www.w3.org/2000/svg" version="1.1" style="font-family: 'Helvetica Neue', Helvetica, Arial, sans-serif; font-size: 18px; background-color: white; text-rendering: optimizeLegibility; -webkit-font-smoothing: antialiased;" width="850" height="600"><g class="ChartTab"><g class="HeaderView"><g opacity="0.8" transform="translate(770, 15) scale(0.31)"><a xmlns:xlink="http://www.w3.org/1999/xlink" xlink:href="https://ourworldindata.org" target="_blank"><g><rect x="0" y="0" fill="#1B2543" width="211.2" height="130.1"/><rect x="0" y="112.2" fill="#E63912" width="211.2" height="17.9"/><g><rect x="1.2" y="12.3" fill="none" width="210.2" height="99.2"/><path fill="#FFFFFF" d="M37.8,32.2c0,12.7-7.7,19.4-17.1,19.4c-9.7,0-16.6-7.5-16.6-18.7c0-11.7,7.3-19.3,17.1-19.3 C31.3,13.7,37.8,21.3,37.8,32.2z M9.2,32.8c0,7.9,4.3,14.9,11.8,14.9c7.5,0,11.8-6.9,11.8-15.3c0-7.3-3.8-14.9-11.8-14.9 C13.1,17.5,9.2,24.8,9.2,32.8z"/><path fill="#FFFFFF" d="M62.7,43.8c0,2.7,0.1,5.1,0.2,7.2h-4.3l-0.3-4.3h-0.1c-1.3,2.1-4,4.9-8.8,4.9c-4.2,0-9.1-2.3-9.1-11.6 V24.6h4.8v14.6c0,5,1.5,8.4,5.9,8.4c3.2,0,5.5-2.2,6.3-4.4c0.3-0.7,0.4-1.6,0.4-2.5V24.6h4.8V43.8z"/><path fill="#FFFFFF" d="M67.3,32.8c0-3.1-0.1-5.8-0.2-8.2h4.2l0.2,5.2h0.2c1.2-3.5,4.1-5.8,7.3-5.8c0.5,0,0.9,0.1,1.4,0.2v4.5 c-0.5-0.1-1-0.2-1.6-0.2c-3.4,0-5.8,2.6-6.5,6.2c-0.1,0.7-0.2,1.4-0.2,2.2V51h-4.8V32.8z"/><path fill="#FFFFFF" d="M95.4,51l-9.4-36.8h5l4.4,18.6c1.1,4.6,2.1,9.2,2.7,12.7h0.1c0.6-3.7,1.8-8,3-12.8l4.9-18.5h5l4.5,18.7 c1,4.4,2,8.7,2.6,12.6h0.1c0.8-4,1.8-8.1,3-12.7l4.9-18.5h4.9L120.6,51h-5L111,31.9c-1.1-4.7-1.9-8.3-2.4-12h-0.1 c-0.7,3.7-1.5,7.3-2.8,12L100.4,51H95.4z"/><path fill="#FFFFFF" d="M154.9,37.6c0,9.8-6.8,14-13.2,14c-7.2,0-12.7-5.2-12.7-13.6c0-8.8,5.8-14,13.1-14 C149.8,24,154.9,29.5,154.9,37.6z M133.9,37.9c0,5.8,3.3,10.1,8,10.1c4.6,0,8-4.3,8-10.3c0-4.5-2.2-10.1-7.9-10.1 C136.3,27.6,133.9,32.8,133.9,37.9z"/><path fill="#FFFFFF" d="M158.2,32.8c0-3.1-0.1-5.8-0.2-8.2h4.2l0.2,5.2h0.2c1.2-3.5,4.1-5.8,7.3-5.8c0.5,0,0.9,0.1,1.4,0.2v4.5 c-0.5-0.1-1-0.2-1.6-0.2c-3.4,0-5.8,2.6-6.5,6.2c-0.1,0.7-0.2,1.4-0.2,2.2V51h-4.8V32.8z"/><path fill="#FFFFFF" d="M173.5,12.3h4.8V51h-4.8V12.3z"/><path fill="#FFFFFF" d="M206.5,12.3v31.9c0,2.3,0.1,5,0.2,6.8h-4.3l-0.2-4.6H202c-1.5,2.9-4.7,5.2-9,5.2 c-6.4,0-11.3-5.4-11.3-13.4c-0.1-8.8,5.4-14.2,11.9-14.2c4,0,6.8,1.9,8,4h0.1V12.3H206.5z M201.7,35.4c0-0.6-0.1-1.4-0.2-2 c-0.7-3.1-3.3-5.6-6.9-5.6c-5,0-7.9,4.4-7.9,10.2c0,5.3,2.6,9.8,7.8,9.8c3.2,0,6.2-2.1,7.1-5.7c0.2-0.7,0.2-1.3,0.2-2.1V35.4z"/><path fill="#FFFFFF" d="M42.8,64c0.1,1.6-1.1,2.9-3.1,2.9c-1.7,0-2.9-1.3-2.9-2.9c0-1.7,1.3-3,3-3C41.7,61,42.8,62.3,42.8,64z M37.4,97.8V71.4h4.8v26.4H37.4z"/><path fill="#FFFFFF" d="M47.5,78.6c0-2.7-0.1-5-0.2-7.1h4.3l0.3,4.4h0.1c1.3-2.5,4.4-5,8.8-5c3.7,0,9.4,2.2,9.4,11.2v15.8h-4.8 V82.6c0-4.3-1.6-7.8-6.1-7.8c-3.2,0-5.6,2.2-6.5,4.9c-0.2,0.6-0.3,1.4-0.3,2.2v15.9h-4.8V78.6z"/><path fill="#FFFFFF" d="M84,61.6c2.9-0.4,6.3-0.8,10.1-0.8c6.8,0,11.7,1.6,14.9,4.6c3.3,3,5.2,7.3,5.2,13.2c0,6-1.9,10.9-5.3,14.3 c-3.4,3.4-9.1,5.3-16.3,5.3c-3.4,0-6.2-0.2-8.6-0.4V61.6z M88.8,94.1c1.2,0.2,3,0.3,4.8,0.3c10.2,0,15.7-5.7,15.7-15.6 c0.1-8.7-4.9-14.2-14.9-14.2c-2.5,0-4.3,0.2-5.6,0.5V94.1z"/><path fill="#FFFFFF" d="M132.1,97.8l-0.4-3.3h-0.2c-1.5,2.1-4.3,3.9-8.1,3.9c-5.4,0-8.1-3.8-8.1-7.6c0-6.4,5.7-9.9,15.9-9.8v-0.5 c0-2.2-0.6-6.1-6-6.1c-2.5,0-5,0.8-6.9,2l-1.1-3.2c2.2-1.4,5.4-2.3,8.7-2.3c8.1,0,10.1,5.5,10.1,10.8v9.9c0,2.3,0.1,4.5,0.4,6.3 H132.1z M131.4,84.4c-5.3-0.1-11.2,0.8-11.2,5.9c0,3.1,2.1,4.6,4.5,4.6c3.4,0,5.6-2.2,6.4-4.4c0.2-0.5,0.3-1,0.3-1.5V84.4z"/><path fill="#FFFFFF" d="M146.6,63.9v7.6h6.9v3.7h-6.9v14.2c0,3.3,0.9,5.1,3.6,5.1c1.3,0,2.2-0.2,2.8-0.3l0.2,3.6 c-0.9,0.4-2.4,0.7-4.3,0.7c-2.2,0-4-0.7-5.2-2c-1.4-1.4-1.9-3.8-1.9-6.9V75.1h-4.1v-3.7h4.1v-6.3L146.6,63.9z"/><path fill="#FFFFFF" d="M171.4,97.8l-0.4-3.3h-0.2c-1.5,2.1-4.3,3.9-8.1,3.9c-5.4,0-8.1-3.8-8.1-7.6c0-6.4,5.7-9.9,15.9-9.8v-0.5 c0-2.2-0.6-6.1-6-6.1c-2.5,0-5,0.8-6.9,2l-1.1-3.2c2.2-1.4,5.4-2.3,8.7-2.3c8.1,0,10.1,5.5,10.1,10.8v9.9c0,2.3,0.1,4.5,0.4,6.3 H171.4z M170.7,84.4c-5.3-0.1-11.2,0.8-11.2,5.9c0,3.1,2.1,4.6,4.5,4.6c3.4,0,5.6-2.2,6.4-4.4c0.2-0.5,0.3-1,0.3-1.5V84.4z"/></g></g></a></g><a href="https://ourworldindata.org/grapher/number-affected-by-natural-disasters" target="_blank"><text font-size="24.30" x="15.0" y="34.4" fill="#555"><tspan x="15" y="34.44">Number of people affected by natural disasters, All natural disasters</tspan></text></a><text font-size="14.40" x="15.0" y="52.8" fill="#666"><tspan x="15" y="52.81999999999999">Global number of people affected by natural disasters. This is defined as &quot;people requiring immediate assistance</tspan><tspan x="15" y="68.66">during a period of emergency, i.e. requiring basic survival needs such as food, water, shelter, sanitation and</tspan><tspan x="15" y="84.5">immediate medical assistance.&quot;</tspan></text></g><g class="LineChart"><defs><clipPath id="boundsClip-376"><rect x="87.598" y="0" width="830" height="870.4"></rect></clipPath></defs><g class="AxisBoxView"><g class="HorizontalAxis"><text x="97.6" y="541.9" fill="#666" text-anchor="middle" font-size="16.2">1907</text><text x="166.9" y="541.9" fill="#666" text-anchor="middle" font-size="16.2">1920</text><text x="273.5" y="541.9" fill="#666" text-anchor="middle" font-size="16.2">1940</text><text x="380.1" y="541.9" fill="#666" text-anchor="middle" font-size="16.2">1960</text><text x="486.8" y="541.9" fill="#666" text-anchor="middle" font-size="16.2">1980</text><text x="593.4" y="541.9" fill="#666" text-anchor="middle" font-size="16.2">2000</text><text x="684" y="541.9" fill="#666" text-anchor="middle" font-size="16.2">2017</text></g><g class="VerticalAxis"><text x="92.60" y="457.9" fill="#666" dominant-baseline="middle" text-anchor="end" font-size="16.2">100 million</text><text x="92.60" y="395" fill="#666" dominant-baseline="middle" text-anchor="end" font-size="16.2">200 million</text><text x="92.60" y="332.2" fill="#666" dominant-baseline="middle" text-anchor="end" font-size="16.2">300 million</text><text x="92.60" y="269.4" fill="#666" dominant-baseline="middle" text-anchor="end" font-size="16.2">400 million</text><text x="92.60" y="206.5" fill="#666" dominant-baseline="middle" text-anchor="end" font-size="16.2">500 million</text><text x="92.60" y="143.7" fill="#666" dominant-baseline="middle" text-anchor="end" font-size="16.2">600 million</text></g><g class="AxisGridLines"><line x1="97.60" y1="457.9" x2="684.00" y2="457.9" stroke="#ddd" stroke-dasharray="3,2"></line><line x1="97.60" y1="395" x2="684.00" y2="395" stroke="#ddd" stroke-dasharray="3,2"></line><line x1="97.60" y1="332.2" x2="684.00" y2="332.2" stroke="#ddd" stroke-dasharray="3,2"></line><line x1="97.60" y1="269.4" x2="684.00" y2="269.4" stroke="#ddd" stroke-dasharray="3,2"></line><line x1="97.60" y1="206.5" x2="684.00" y2="206.5" stroke="#ddd" stroke-dasharray="3,2"></line><line x1="97.60" y1="143.7" x2="684.00" y2="143.7" stroke="#ddd" stroke-dasharray="3,2"></line></g><g class="AxisGridLines"><line x1="166.9" y1="520.70" x2="166.9" y2="106.70" stroke="#ddd" stroke-dasharray="3,2"></line><line x1="273.5" y1="520.70" x2="273.5" y2="106.70" stroke="#ddd" stroke-dasharray="3,2"></line><line x1="380.1" y1="520.70" x2="380.1" y2="106.70" stroke="#ddd" stroke-dasharray="3,2"></line><line x1="486.8" y1="520.70" x2="486.8" y2="106.70" stroke="#ddd" stroke-dasharray="3,2"></line><line x1="593.4" y1="520.70" x2="593.4" y2="106.70" stroke="#ddd" stroke-dasharray="3,2"></line></g></g><g clip-path="url(#boundsClip-376)"><g class="HeightedLegend clickable"><g class="legendMark"><rect x="694" y="455.5" width="141" height="14.4" fill="#fff" opacity="0"></rect><rect x="694" y="461.45" width="10" height="2.5" fill="#3360a9"></rect><text font-size="14.40" x="709.0" y="467.0" fill="#333"><tspan x="709" y="467.02">All natural disasters</tspan></text></g></g><g class="Lines"><rect x="98" y="107" width="586" height="414" fill="rgba(255,255,255,0)" opacity="0"></rect><g class="key-All-natural-disasters_0"><path stroke="#3360a9" stroke-linecap="round" d="M98 521L103 521L114 521L140 519L151 520L156 519L167 508L172 518L183 509L188 520L204 521L210 521L220 521L226 521L247 514L258 521L274 521L290 521L295 521L300 520L306 521L316 520L322 521L327 514L332 521L338 520L343 519L348 521L359 520L364 520L370 521L375 520L380 519L386 520L391 521L396 517L402 516L407 447L412 514L418 517L423 505L428 513L433 492L439 515L444 384L449 513L455 494L460 500L465 507L471 507L476 486L481 483L487 475L492 501L497 427L503 455L508 482L513 504L519 503L524 287L529 394L535 414L540 469L545 346L551 481L556 414L561 355L567 385L572 387L577 479L583 323L588 348L593 412L599 454L604 107L609 362L615 422L620 424L625 445L631 388L636 384L641 394L647 359L652 388L657 451L663 460L668 433L673 249L679 395L684 463" fill="none" stroke-width="1.5"></path><g fill="#3360a9"><circle cx="98" cy="521" r="2"></circle><circle cx="103" cy="521" r="2"></circle><circle cx="114" cy="521" r="2"></circle><circle cx="140" cy="519" r="2"></circle><circle cx="151" cy="520" r="2"></circle><circle cx="156" cy="519" r="2"></circle><circle cx="167" cy="508" r="2"></circle><circle cx="172" cy="518" r="2"></circle><circle cx="183" cy="509" r="2"></circle><circle cx="188" cy="520" r="2"></circle><circle cx="204" cy="521" r="2"></circle><circle cx="210" cy="521" r="2"></circle><circle cx="220" cy="521" r="2"></circle><circle cx="226" cy="521" r="2"></circle><circle cx="247" cy="514" r="2"></circle><circle cx="258" cy="521" r="2"></circle><circle cx="274" cy="521" r="2"></circle><circle cx="290" cy="521" r="2"></circle><circle cx="295" cy="521" r="2"></circle><circle cx="300" cy="520" r="2"></circle><circle cx="306" cy="521" r="2"></circle><circle cx="316" cy="520" r="2"></circle><circle cx="322" cy="521" r="2"></circle><circle cx="327" cy="514" r="2"></circle><circle cx="332" cy="521" r="2"></circle><circle cx="338" cy="520" r="2"></circle><circle cx="343" cy="519" r="2"></circle><circle cx="348" cy="521" r="2"></circle><circle cx="359" cy="520" r="2"></circle><circle cx="364" cy="520" r="2"></circle><circle cx="370" cy="521" r="2"></circle><circle cx="375" cy="520" r="2"></circle><circle cx="380" cy="519" r="2"></circle><circle cx="386" cy="520" r="2"></circle><circle cx="391" cy="521" r="2"></circle><circle cx="396" cy="517" r="2"></circle><circle cx="402" cy="516" r="2"></circle><circle cx="407" cy="447" r="2"></circle><circle cx="412" cy="514" r="2"></circle><circle cx="418" cy="517" r="2"></circle><circle cx="423" cy="505" r="2"></circle><circle cx="428" cy="513" r="2"></circle><circle cx="433" cy="492" r="2"></circle><circle cx="439" cy="515" r="2"></circle><circle cx="444" cy="384" r="2"></circle><circle cx="449" cy="513" r="2"></circle><circle cx="455" cy="494" r="2"></circle><circle cx="460" cy="500" r="2"></circle><circle cx="465" cy="507" r="2"></circle><circle cx="471" cy="507" r="2"></circle><circle cx="476" cy="486" r="2"></circle><circle cx="481" cy="483" r="2"></circle><circle cx="487" cy="475" r="2"></circle><circle cx="492" cy="501" r="2"></circle><circle cx="497" cy="427" r="2"></circle><circle cx="503" cy="455" r="2"></circle><circle cx="508" cy="482" r="2"></circle><circle cx="513" cy="504" r="2"></circle><circle cx="519" cy="503" r="2"></circle><circle cx="524" cy="287" r="2"></circle><circle cx="529" cy="394" r="2"></circle><circle cx="535" cy="414" r="2"></circle><circle cx="540" cy="469" r="2"></circle><circle cx="545" cy="346" r="2"></circle><circle cx="551" cy="481" r="2"></circle><circle cx="556" cy="414" r="2"></circle><circle cx="561" cy="355" r="2"></circle><circle cx="567" cy="385" r="2"></circle><circle cx="572" cy="387" r="2"></circle><circle cx="577" cy="479" r="2"></circle><circle cx="583" cy="323" r="2"></circle><circle cx="588" cy="348" r="2"></circle><circle cx="593" cy="412" r="2"></circle><circle cx="599" cy="454" r="2"></circle><circle cx="604" cy="107" r="2"></circle><circle cx="609" cy="362" r="2"></circle><circle cx="615" cy="422" r="2"></circle><circle cx="620" cy="424" r="2"></circle><circle cx="625" cy="445" r="2"></circle><circle cx="631" cy="388" r="2"></circle><circle cx="636" cy="384" r="2"></circle><circle cx="641" cy="394" r="2"></circle><circle cx="647" cy="359" r="2"></circle><circle cx="652" cy="388" r="2"></circle><circle cx="657" cy="451" r="2"></circle><circle cx="663" cy="460" r="2"></circle><circle cx="668" cy="433" r="2"></circle><circle cx="673" cy="249" r="2"></circle><circle cx="679" cy="395" r="2"></circle><circle cx="684" cy="463" r="2"></circle></g></g></g></g></g><g style="fill: #777;" class="SourcesFooter"><g style="fill: #777;" class="clickable"><text font-size="12.60" x="15.0" y="567.0"><tspan x="15" y="566.98">Source: EMDAT (2017): OFDA/CRED International Disaster Database, Université catholique de Louvain – Brussels – Belgium</tspan></text></g><text font-size="12.60" x="15.0" y="582.5"><tspan x="15" y="582.48"><a target='_blank' style='fill: #777;' href='https://ourworldindata.org/natural-catastrophes/'>OurWorldInData.org/natural-catastrophes/</a> • <a style="fill: #777;" href="http://creativecommons.org/licenses/by-sa/4.0/deed.en_US" target="_blank">CC BY-SA</a></tspan></text></g></g></svg>
